src/components/HostingOption/images/hosting-google-cloud.svg

<svg width="21" height="18" viewBox="0 0 21 18" fill="none" xmlns="http://www.w3.org/2000/svg">
<path d="M13.3749 5.38538H13.9852L15.7239 3.64672L15.8094 2.90901C12.5743 0.0537174 7.63585 0.361378 4.78056 3.59642C3.98668 4.49509 3.41076 5.56394 3.09723 6.72081C3.29088 6.64117 3.50549 6.6286 3.70752 6.68392L7.184 6.11052C7.184 6.11052 7.36088 5.81795 7.45226 5.83639C8.99894 4.13797 11.6019 3.94013 13.3875 5.38538H13.3749Z" fill="white"/>
<path d="M18.2028 6.71951C17.8029 5.24827 16.9831 3.92542 15.8421 2.91357L13.4026 5.35306C14.4329 6.19473 15.0197 7.46309 14.9946 8.79349V9.2269C16.1942 9.2269 17.1658 10.1993 17.1658 11.3981C17.1658 12.5978 16.1934 13.5694 14.9946 13.5694H10.6513L10.2179 14.0086V16.6133L10.6513 17.0467H14.9946C17.4844 17.066 19.6933 15.4522 20.4327 13.0748C21.1704 10.6965 20.2651 8.11446 18.2028 6.71951Z" fill="white"/>
<path d="M6.30246 17.0219H10.6458V13.5454H6.30246C5.99313 13.5454 5.68714 13.4792 5.40547 13.3501L4.79518 13.5387L3.04478 15.2774L2.89221 15.8877C3.87387 16.6287 5.07182 17.0269 6.30246 17.0219Z" fill="white"/>
<path d="M6.30089 5.74271C3.88823 5.75696 1.75137 7.30197 0.981802 9.58804C0.212232 11.8741 0.979287 14.3974 2.89148 15.8678L5.4106 13.3487C4.31744 12.8549 3.83206 11.569 4.32583 10.4758C4.81959 9.38266 6.10556 8.89727 7.19872 9.39104C7.67991 9.609 8.06554 9.99462 8.2835 10.4758L10.8026 7.95669C9.73042 6.55587 8.0647 5.73684 6.30089 5.74271Z" fill="white"/>
</svg>

<svg fill="none" viewBox="0 0 21 18"><path fill="#fff" d="M13.375 5.385h.61l1.739-1.738.085-.738A7.814 7.814 0 003.097 6.721a.947.947 0 01.61-.037l3.477-.573s.177-.293.268-.275a4.337 4.337 0 015.935-.45h-.012z"/><path fill="#fff" d="M18.203 6.72a7.832 7.832 0 00-2.36-3.806l-2.44 2.44a4.337 4.337 0 011.592 3.44v.433a2.171 2.171 0 110 4.342H10.65l-.433.44v2.604l.433.434h4.344A5.65 5.65 0 0018.203 6.72z"/><path fill="#fff" d="M6.302 17.022h4.344v-3.477H6.302c-.309 0-.615-.066-.897-.195l-.61.189-1.75 1.738-.153.61a5.622 5.622 0 003.41 1.135z"/><path fill="#fff" d="M6.3 5.743a5.647 5.647 0 00-3.409 10.125l2.52-2.52a2.171 2.171 0 112.873-2.872l2.519-2.52A5.646 5.646 0 006.3 5.744z"/></svg>
